src/dark/hiso font dark_u.svg

<svg xmlns="http://www.w3.org/2000/svg" width="90" height="126" viewBox="0 0 90 126"><path fill="#000101" d="M36 9v35.27l-36-17.64v72.37l36 18 36-18v-72l-36-18zm-33 88.15v-65.3l33 16.5v65.3l-33-16.5zm66 .35l-30-15v-68.65l30 15v68.65z"/></svg>

<svg xmlns="http://www.w3.org/2000/svg" width="90" height="126"><path fill="#000101" d="M36 9v35.27L0 26.63V99l36 18 36-18V27L36 9zM3 97.15v-65.3l33 16.5v65.3L3 97.15zm66 .35l-30-15V13.85l30 15V97.5z"/></svg>
